X:386
T:B386-  Quoth John to Joan
Q:1/4=120
L:1/4
M:6/4
K:G dorian
^F|G2AB2(A/G/)|A2dc2A|B3/2A/GAAd|c3/2d/BA2d|\
d2dg2c|(cd)_ed3|(d_e)fg2c|(cd)_ed3|\
(Bc)dc3|B(cd)c2A|G2^fg3|(Bc)dcA2|\
(Gf2)gdc|(Bd)ABdA|B2AG3|F3FD2|\
A(Bc)cAG|BdGBdG|B2AG2|]

